Newaita-dark/actions/scalable/code-function.svg

<?xml version="1.0" encoding="UTF-8"?>
<svg xmlns="http://www.w3.org/2000/svg" xmlns:xlink="http://www.w3.org/1999/xlink" width="512pt" height="512pt" viewBox="0 0 512 512" version="1.1">
<g id="surface1">
<path style=" stroke:none;fill-rule:nonzero;fill:rgb(74.117649%,74.117649%,74.117649%);fill-opacity:1;" d="M 306.945312 152.179688 L 455.125 152.179688 C 472.664062 152.179688 486.878906 166.398438 486.878906 183.933594 L 486.878906 332.113281 C 486.878906 349.652344 472.664062 363.867188 455.125 363.867188 L 306.945312 363.867188 C 289.410156 363.867188 275.191406 349.652344 275.191406 332.113281 L 275.191406 183.933594 C 275.191406 166.398438 289.410156 152.179688 306.945312 152.179688 Z M 306.945312 152.179688 "/>
<path style=" stroke:none;fill-rule:nonzero;fill:rgb(47.058824%,56.470591%,61.176473%);fill-opacity:1;" d="M 100.550781 99.257812 L 216.980469 99.257812 C 225.746094 99.257812 232.855469 105.792969 232.855469 113.851562 L 232.855469 116.417969 C 232.855469 124.480469 225.746094 131.011719 216.980469 131.011719 L 100.550781 131.011719 C 91.78125 131.011719 84.675781 124.480469 84.675781 116.417969 L 84.675781 113.851562 C 84.675781 105.792969 91.78125 99.257812 100.550781 99.257812 Z M 100.550781 99.257812 "/>
<path style=" stroke:none;fill-rule:nonzero;fill:rgb(47.058824%,56.470591%,61.176473%);fill-opacity:1;" d="M 58.214844 289.777344 L 195.808594 289.777344 C 204.578125 289.777344 211.6875 296.886719 211.6875 305.652344 C 211.6875 314.421875 204.578125 321.53125 195.808594 321.53125 L 58.214844 321.53125 C 49.445312 321.53125 42.335938 314.421875 42.335938 305.652344 C 42.335938 296.886719 49.445312 289.777344 58.214844 289.777344 Z M 58.214844 289.777344 "/>
<path style=" stroke:none;fill-rule:nonzero;fill:rgb(47.058824%,56.470591%,61.176473%);fill-opacity:1;" d="M 142.886719 385.035156 L 216.980469 385.035156 C 225.746094 385.035156 232.855469 392.144531 232.855469 400.914062 C 232.855469 409.679688 225.746094 416.789062 216.980469 416.789062 L 142.886719 416.789062 C 134.121094 416.789062 127.011719 409.679688 127.011719 400.914062 C 127.011719 392.144531 134.121094 385.035156 142.886719 385.035156 Z M 142.886719 385.035156 "/>
<path style=" stroke:none;fill-rule:nonzero;fill:rgb(47.058824%,56.470591%,61.176473%);fill-opacity:1;" d="M 79.382812 194.519531 L 174.640625 194.519531 C 183.410156 194.519531 190.519531 201.625 190.519531 210.394531 C 190.519531 219.164062 183.410156 226.273438 174.640625 226.273438 L 79.382812 226.273438 C 70.613281 226.273438 63.507812 219.164062 63.507812 210.394531 C 63.507812 201.625 70.613281 194.519531 79.382812 194.519531 Z M 79.382812 194.519531 "/>
</g>
</svg>

<svg xmlns="http://www.w3.org/2000/svg" width="512pt" height="512pt" viewBox="0 0 512 512"><path d="M306.945 152.18h148.18c17.54 0 31.754 14.218 31.754 31.754v148.18c0 17.538-14.215 31.753-31.754 31.753h-148.18c-17.535 0-31.754-14.215-31.754-31.754v-148.18c0-17.535 14.22-31.753 31.754-31.753zm0 0" fill="#bdbdbd"/><path d="M100.55 99.258h116.43c8.766 0 15.875 6.535 15.875 14.594v2.566c0 8.062-7.109 14.594-15.875 14.594H100.55c-8.769 0-15.874-6.532-15.874-14.594v-2.566c0-8.059 7.105-14.594 15.875-14.594zm0 0M58.215 289.777h137.594c8.77 0 15.879 7.11 15.879 15.875 0 8.77-7.11 15.88-15.88 15.88H58.216c-8.77 0-15.88-7.11-15.88-15.88 0-8.765 7.11-15.875 15.88-15.875zm0 0M142.887 385.035h74.093c8.766 0 15.875 7.11 15.875 15.88 0 8.765-7.109 15.874-15.875 15.874h-74.093c-8.766 0-15.875-7.11-15.875-15.875 0-8.77 7.11-15.879 15.875-15.879zm0 0M79.383 194.52h95.258c8.77 0 15.879 7.105 15.879 15.875s-7.11 15.878-15.88 15.878H79.384c-8.77 0-15.875-7.109-15.875-15.878 0-8.77 7.105-15.875 15.875-15.875zm0 0" fill="#78909c"/></svg>
